svg/u1f364.svg

<svg viewBox="0 0 128 128" xmlns="http://www.w3.org/2000/svg">
  <path d="M56.17,82.48c0,0-2.95-5.43-7.56-10.16c-4.61-4.72-9.33-6.97-9.33-6.97s0-2.6-0.12-4.13 c-0.12-1.54-0.77-3.89-0.77-3.89s1.6-7.33,1.12-15.48c-0.47-8.15-3.54-10.75-6.97-11.22c-3.76-0.52-5.43,2.48-5.43,2.48 s-3.46-5.21-9.57-2.95c-5.43,2.01-4.84,8.15-4.84,8.15s-4.49-1.06-7.2,1.77c-2.25,2.35-2.87,7.06,1.3,14.41 c6.02,10.63,14.05,15.12,14.05,15.12s0.77,7.73,5.79,17.48c5.22,10.15,13.35,15.94,17.01,16.06 C48.04,103.29,56.17,82.48,56.17,82.48z" fill="#ED6D30"/>
  <path d="M108.53,33l-12.08-2.57l-11.2,58.99l-41.53,16.19c0,0-0.93,3.66,4.02,5.72 c3.54,1.48,6.22,0.11,6.22,0.11s1.45,2.9,5.87,3.28s5.81-1.01,5.81-1.01s1.77,2.4,5.74,2.08c3.98-0.32,4.92-2.35,5.93-2.45 c1.01-0.1,4.04,2.58,9.47,0.56c5.43-2.02,6.31-5.93,6.25-5.68c-0.06,0.25,6.37,0.5,10.54-4.23c3.8-4.31,2.98-6.08,4.07-7.84 c1.08-1.76,4.2-1.07,7.73-6.54c3.66-5.68,2.27-6.94,2.9-8.58s3.66-3.41,4.48-7.38c0.82-3.98-1.7-6.2-1.33-9.02 c0.31-2.34,2.63-4.82,2.63-8.67c0-4.94-5.72-7.61-5.72-7.61s0.44-5.46-0.95-8.52C114.92,34.38,108.53,33,108.53,33z" fill="#E17F13"/>
  <path d="M19.69,38.85c-2.4,0.93-1.31,4.6-0.08,7.06s3.73,8.21,4.68,10.07c0.58,1.13,1.63,2.74,3.29,2.22 s1.19-2.74,0.75-4.05c-0.44-1.31-2.86-7.65-3.53-9.68C24.13,42.46,22.66,37.7,19.69,38.85z" fill="#D63102"/>
  <path d="M31.55,40c-2.3,0.12-2.93,2.18-2.46,6.43s1.59,10.19,1.71,11.38s0.63,2.97,2.26,2.82 c1.63-0.16,1.39-2.42,1.39-3.49c0-1.07-0.16-9.76-0.28-11.82C34.04,43.25,33.88,39.88,31.55,40z" fill="#D63102"/>
  <path d="M12.47,47.58c-1.46,0.98-1.35,3.37,0.44,5.83c1.45,1.99,7.34,9.04,8.29,10.11 c0.95,1.07,2.42,1.55,3.37,0.52c0.8-0.87,0.18-2.37-0.32-3.05c-0.71-0.99-5.51-8.49-6.35-9.84C17.07,49.8,14.89,45.95,12.47,47.58z" fill="#D63102"/>
  <path d="M64.38,79.89c0,0-2.19-3.56-6.75-3.17c-4.54,0.39-5.27,3.84-5.27,3.84s-4.38-1.68-7.24,2.11 c-2.27,3-0.93,7.41-0.93,7.41s-4.85,1.37-4.79,7.8c0.06,6.48,3.91,7.91,5.05,8.31c1.14,0.4,3.01,0.15,3.01,0.15s2.22,2.96,5.76,2.74 c3.54-0.22,6.57-1.77,8.34-1.62c2.09,0.17,3.8,1.95,6.33,2.63c4.09,1.1,7.25-1.05,9.83-3.12s3.45-4.14,5.39-5.09 c2.23-1.09,5.39-0.37,7.67-1.92c2.29-1.55,1.7-3.39,3.69-4.72c1.99-1.33,3.32-0.52,6.42-3.76c3.1-3.25,1.77-6.49,2.95-8.56 c1.18-2.07,2.58-0.44,4.65-4.43s0.22-8.04,1.03-10.7s3.32-3.25,3.69-7.23s-2.83-7.44-2.68-9.95c0.15-2.51,2.63-3.49,2.78-8.65 c0.15-5.16-1.95-7.88-1.95-7.88s0.96-3.98-2.29-8.11c-3.25-4.13-7.45-4.06-7.45-4.06s0.74-3.91-3.84-6.64s-9-0.89-9-0.89 s-2.36-2.96-7.89-3.02c-6.05-0.07-8.26,2.51-8.26,2.51s-3.54-2.66-9-0.22c-4.61,2.06-5.02,5.31-5.02,5.31s-4.31-0.41-7.23,3.1 c-2.95,3.54-1.77,7.89-1.77,7.89s-3.69,2.43-3.54,7.3c0.17,5.54,3.39,7.23,3.39,7.23s-3.02,5.46,3.39,12.1s10.4,4.2,10.4,4.2 s2.25,2.68,5.79,3.42c3.54,0.74,6.61-0.62,6.61-0.62s0.96,1.77,2.29,2.88s2.73,2.07,2.73,2.07s-1.18,1.18-1.7,3.1 c-0.52,1.92-0.07,4.43-0.07,4.43s-3.39-0.3-7.6,0.66C66.66,77.78,64.38,79.89,64.38,79.89z" fill="#FCC11A"/>
  <path d="M104.56,34.29c-1.63,0.08-1.44,2.12-1.47,3.56c-0.03,1.44-0.63,3.75,1.47,3.81 c1.96,0.05,2.03-2.61,2.09-3.62C106.76,36.41,106.63,34.18,104.56,34.29z" fill="#E17F13"/>
  <path d="M106.77,57c-1.53,0.12-1.68,1.96-1.78,3.58c-0.09,1.56-1.09,3.92,0.72,4.49 c1.81,0.56,2.83-1.68,2.99-3.86C108.85,59.02,108.82,56.83,106.77,57z" fill="#E17F13"/>
  <path d="M64.94,103.22c-0.37,1.59,0.34,3.07,3.71,3.52c3.27,0.44,4.14-0.83,4.27-2.12 c0.19-1.96-1.78-2.71-3.77-2.96C67.48,101.45,65.35,101.45,64.94,103.22z" fill="#E17F13"/>
  <path d="M47.28,101.44c-0.77,1.92,0.87,2.99,3.36,3.74c2.49,0.75,4.27,0.28,4.77-1.18 c0.49-1.44-1.06-2.37-3.46-3.05C49.55,100.26,47.9,99.89,47.28,101.44z" fill="#E17F13"/>
</svg>

<svg viewBox="0 0 128 128" xmlns="http://www.w3.org/2000/svg">
  <defs/>
  <path d="M56.17,82.48 C56.17,82.48 53.22,77.05 48.61,72.32 C44,67.6 39.28,65.35 39.28,65.35 C39.28,65.35 39.28,62.75 39.16,61.22 C39.04,59.68 38.39,57.33 38.39,57.33 C38.39,57.33 39.99,50 39.51,41.85 C39.04,33.7 35.97,31.1 32.54,30.63 C28.78,30.11 27.11,33.11 27.11,33.11 C27.11,33.11 23.65,27.9 17.54,30.16 C12.11,32.17 12.7,38.31 12.7,38.31 C12.7,38.31 8.21,37.25 5.5,40.08 C3.25,42.43 2.63,47.14 6.8,54.49 C12.82,65.12 20.85,69.61 20.85,69.61 C20.85,69.61 21.62,77.34 26.64,87.09 C31.86,97.24 39.99,103.03 43.65,103.15 C48.04,103.29 56.17,82.48 56.17,82.48 Z" fill="#ED6D30"/>
  <path d="M108.53,33 L96.45,30.43 L85.25,89.42 L43.72,105.61 C43.72,105.61 42.79,109.27 47.74,111.33 C51.28,112.81 53.96,111.44 53.96,111.44 C53.96,111.44 55.41,114.34 59.83,114.72 C64.25,115.1 65.64,113.71 65.64,113.71 C65.64,113.71 67.41,116.11 71.38,115.79 C75.36,115.47 76.3,113.44 77.31,113.34 C78.32,113.24 81.35,115.92 86.78,113.9 C92.21,111.88 93.09,107.97 93.03,108.22 C92.97,108.47 99.4,108.72 103.57,103.99 C107.37,99.68 106.55,97.91 107.64,96.15 C108.72,94.39 111.84,95.08 115.37,89.61 C119.03,83.93 117.64,82.67 118.27,81.03 C118.9,79.39 121.93,77.62 122.75,73.65 C123.57,69.67 121.05,67.45 121.42,64.63 C121.73,62.29 124.05,59.81 124.05,55.96 C124.05,51.02 118.33,48.35 118.33,48.35 C118.33,48.35 118.77,42.89 117.38,39.83 C114.92,34.38 108.53,33 108.53,33 Z" fill="#E17F13"/>
  <path d="M19.69,38.85 C17.29,39.78 18.38,43.45 19.61,45.91 C20.84,48.37 23.34,54.12 24.29,55.98 C24.87,57.11 25.92,58.72 27.58,58.2 C29.24,57.68 28.77,55.46 28.33,54.15 C27.89,52.84 25.47,46.5 24.8,44.47 C24.13,42.46 22.66,37.7 19.69,38.85 Z" fill="#D63102"/>
  <path d="M31.55,40 C29.25,40.12 28.62,42.18 29.09,46.43 C29.56,50.68 30.68,56.62 30.8,57.81 C30.92,59 31.43,60.78 33.06,60.63 C34.69,60.47 34.45,58.21 34.45,57.14 C34.45,56.07 34.29,47.38 34.17,45.32 C34.04,43.25 33.88,39.88 31.55,40 Z" fill="#D63102"/>
  <path d="M12.47,47.58 C11.01,48.56 11.12,50.95 12.91,53.41 C14.36,55.4 20.25,62.45 21.2,63.52 C22.15,64.59 23.62,65.07 24.57,64.04 C25.37,63.17 24.75,61.67 24.25,60.99 C23.54,60 18.74,52.5 17.9,51.15 C17.07,49.8 14.89,45.95 12.47,47.58 Z" fill="#D63102"/>
  <path d="M64.38,79.89 C64.38,79.89 62.19,76.33 57.63,76.72 C53.09,77.11 52.36,80.56 52.36,80.56 C52.36,80.56 47.98,78.88 45.12,82.67 C42.85,85.67 44.19,90.08 44.19,90.08 C44.19,90.08 39.34,91.45 39.4,97.88 C39.46,104.36 43.31,105.79 44.45,106.19 C45.59,106.59 47.46,106.34 47.46,106.34 C47.46,106.34 49.68,109.3 53.22,109.08 C56.76,108.86 59.79,107.31 61.56,107.46 C63.65,107.63 65.36,109.41 67.89,110.09 C71.98,111.19 75.14,109.04 77.72,106.97 C80.3,104.9 81.17,102.83 83.11,101.88 C85.34,100.79 88.5,101.51 90.78,99.96 C93.07,98.41 92.48,96.57 94.47,95.24 C96.46,93.91 97.79,94.72 100.89,91.48 C103.99,88.23 102.66,84.99 103.84,82.92 C105.02,80.85 106.42,82.48 108.49,78.49 C110.56,74.5 108.71,70.45 109.52,67.79 C110.33,65.13 112.84,64.54 113.21,60.56 C113.58,56.58 110.38,53.12 110.53,50.61 C110.68,48.1 113.16,47.12 113.31,41.96 C113.46,36.8 111.36,34.08 111.36,34.08 C111.36,34.08 112.32,30.1 109.07,25.97 C105.82,21.84 101.62,21.91 101.62,21.91 C101.62,21.91 102.36,18 97.78,15.27 C93.2,12.54 88.78,14.38 88.78,14.38 C88.78,14.38 86.42,11.42 80.89,11.36 C74.84,11.29 72.63,13.87 72.63,13.87 C72.63,13.87 69.09,11.21 63.63,13.65 C59.02,15.71 58.61,18.96 58.61,18.96 C58.61,18.96 54.3,18.55 51.38,22.06 C48.43,25.6 49.61,29.95 49.61,29.95 C49.61,29.95 45.92,32.38 46.07,37.25 C46.24,42.79 49.46,44.48 49.46,44.48 C49.46,44.48 46.44,49.94 52.85,56.58 C59.26,63.22 63.25,60.78 63.25,60.78 C63.25,60.78 65.5,63.46 69.04,64.2 C72.58,64.94 75.65,63.58 75.65,63.58 C75.65,63.58 76.61,65.35 77.94,66.46 C79.27,67.57 80.67,68.53 80.67,68.53 C80.67,68.53 79.49,69.71 78.97,71.63 C78.45,73.55 78.9,76.06 78.9,76.06 C78.9,76.06 75.51,75.76 71.3,76.72 C66.66,77.78 64.38,79.89 64.38,79.89 Z" fill="#FCC11A"/>
  <path d="M104.56,34.29 C102.93,34.37 103.12,36.41 103.09,37.85 C103.06,39.29 102.46,41.6 104.56,41.66 C106.52,41.71 106.59,39.05 106.65,38.04 C106.76,36.41 106.63,34.18 104.56,34.29 Z" fill="#E17F13"/>
  <path d="M106.77,57 C105.24,57.12 105.09,58.96 104.99,60.58 C104.9,62.14 103.9,64.5 105.71,65.07 C107.52,65.63 108.54,63.39 108.7,61.21 C108.85,59.02 108.82,56.83 106.77,57 Z" fill="#E17F13"/>
  <path d="M64.94,103.22 C64.57,104.81 65.28,106.29 68.65,106.74 C71.92,107.18 72.79,105.91 72.92,104.62 C73.11,102.66 71.14,101.91 69.15,101.66 C67.48,101.45 65.35,101.45 64.94,103.22 Z" fill="#E17F13"/>
  <path d="M47.28,101.44 C46.51,103.36 48.15,104.43 50.64,105.18 C53.13,105.93 54.91,105.46 55.41,104 C55.9,102.56 54.35,101.63 51.95,100.95 C49.55,100.26 47.9,99.89 47.28,101.44 Z" fill="#E17F13"/>
</svg>
